telma/img/buttons/base-plane/SetMaxStep.svg

<?xml version="1.0" encoding="UTF-8" standalone="no"?>
<!-- Created with Inkscape (http://www.inkscape.org/) -->
<svg
   xmlns:dc="http://purl.org/dc/elements/1.1/"
   xmlns:cc="http://creativecommons.org/ns#"
   xmlns:rdf="http://www.w3.org/1999/02/22-rdf-syntax-ns#"
   xmlns:svg="http://www.w3.org/2000/svg"
   xmlns="http://www.w3.org/2000/svg"
   xmlns:xlink="http://www.w3.org/1999/xlink"
   xmlns:sodipodi="http://sodipodi.sourceforge.net/DTD/sodipodi-0.dtd"
   xmlns:inkscape="http://www.inkscape.org/namespaces/inkscape"
   width="600"
   height="600"
   id="svg2"
   sodipodi:version="0.32"
   inkscape:version="0.46"
   version="1.0"
   sodipodi:docname="SetMaxStep.svg"
   inkscape:output_extension="org.inkscape.output.svg.inkscape"
   inkscape:export-filename="D:\Documents and Settings\Маша\Рабочий стол\TELMA.V20\Projects\Interfaces\Telbase\TelBasePanel\images\SetMaxStep.png"
   inkscape:export-xdpi="4.7978296"
   inkscape:export-ydpi="4.7978296">
  <defs
     id="defs4">
    <linearGradient
       inkscape:collect="always"
       id="linearGradient3267">
      <stop
         style="stop-color:#ff0000;stop-opacity:1;"
         offset="0"
         id="stop3269" />
      <stop
         style="stop-color:#ff0000;stop-opacity:0;"
         offset="1"
         id="stop3271" />
    </linearGradient>
    <linearGradient
       inkscape:collect="always"
       xlink:href="#linearGradient3267"
       id="linearGradient3273"
       x1="123.15675"
       y1="130.17917"
       x2="131.75237"
       y2="121.43824"
       gradientUnits="userSpaceOnUse"
       gradientTransform="matrix(-4.9799791,-0.393113,5.1249421,-0.4943392,220.36251,344.76217)" />
    <linearGradient
       id="linearGradient3253">
      <stop
         style="stop-color:#ff0000;stop-opacity:1;"
         offset="0"
         id="stop3255" />
      <stop
         style="stop-color:#ff0000;stop-opacity:0;"
         offset="1"
         id="stop3257" />
    </linearGradient>
    <linearGradient
       inkscape:collect="always"
       xlink:href="#linearGradient3253"
       id="linearGradient3261"
       x1="-74.741104"
       y1="-86.035858"
       x2="91.101135"
       y2="-163.68266"
       gradientUnits="userSpaceOnUse" />
    <linearGradient
       id="linearGradient4618">
      <stop
         style="stop-color:#e3d85d;stop-opacity:0.77865613;"
         offset="0"
         id="stop4620" />
      <stop
         style="stop-color:#ffffff;stop-opacity:0;"
         offset="1"
         id="stop4622" />
    </linearGradient>
    <linearGradient
       id="linearGradient3176">
      <stop
         id="stop3178"
         offset="0"
         style="stop-color:#ff0000;stop-opacity:1;" />
      <stop
         id="stop3180"
         offset="1"
         style="stop-color:#00d63b;stop-opacity:0;" />
    </linearGradient>
    <linearGradient
       id="linearGradient3170">
      <stop
         style="stop-color:#ff0000;stop-opacity:1;"
         offset="0"
         id="stop3172" />
      <stop
         style="stop-color:#00d63b;stop-opacity:0;"
         offset="1"
         id="stop3174" />
    </linearGradient>
    <linearGradient
       id="linearGradient3164">
      <stop
         id="stop3166"
         offset="0"
         style="stop-color:#ff0000;stop-opacity:1;" />
      <stop
         id="stop3168"
         offset="1"
         style="stop-color:#00d63b;stop-opacity:0;" />
    </linearGradient>
    <linearGradient
       id="linearGradient5422">
      <stop
         style="stop-color:#ff0000;stop-opacity:1;"
         offset="0"
         id="stop5424" />
      <stop
         style="stop-color:#00d63b;stop-opacity:0;"
         offset="1"
         id="stop5426" />
    </linearGradient>
    <inkscape:perspective
       sodipodi:type="inkscape:persp3d"
       inkscape:vp_x="0 : 526.18109 : 1"
       inkscape:vp_y="6.1230318e-14 : 1000 : 0"
       inkscape:vp_z="744.09448 : 526.18109 : 1"
       inkscape:persp3d-origin="372.04724 : 350.78739 : 1"
       id="perspective10" />
    <linearGradient
       inkscape:collect="always"
       xlink:href="#linearGradient3253"
       id="linearGradient3454"
       gradientUnits="userSpaceOnUse"
       x1="-74.741104"
       y1="-86.035858"
       x2="91.101135"
       y2="-163.68266" />
    <linearGradient
       inkscape:collect="always"
       xlink:href="#linearGradient3267"
       id="linearGradient3456"
       gradientUnits="userSpaceOnUse"
       gradientTransform="matrix(4.9810849,0.3788437,-5.1235048,0.5090201,259.47826,252.87199)"
       x1="123.15675"
       y1="130.17917"
       x2="131.75237"
       y2="121.43824" />
    <linearGradient
       inkscape:collect="always"
       xlink:href="#linearGradient3253"
       id="linearGradient2422"
       gradientUnits="userSpaceOnUse"
       x1="-74.741104"
       y1="-86.035858"
       x2="91.101135"
       y2="-163.68266" />
    <linearGradient
       inkscape:collect="always"
       xlink:href="#linearGradient3267"
       id="linearGradient2424"
       gradientUnits="userSpaceOnUse"
       gradientTransform="matrix(4.9810849,0.3788437,-5.1235048,0.5090201,259.47826,252.87199)"
       x1="123.15675"
       y1="130.17917"
       x2="131.75237"
       y2="121.43824" />
    <linearGradient
       inkscape:collect="always"
       xlink:href="#linearGradient3253"
       id="linearGradient2430"
       gradientUnits="userSpaceOnUse"
       x1="-74.741104"
       y1="-86.035858"
       x2="91.101135"
       y2="-163.68266" />
    <linearGradient
       inkscape:collect="always"
       xlink:href="#linearGradient3267"
       id="linearGradient2432"
       gradientUnits="userSpaceOnUse"
       gradientTransform="matrix(-4.9799791,-0.393113,5.1249421,-0.4943392,220.36251,344.76217)"
       x1="123.15675"
       y1="130.17917"
       x2="131.75237"
       y2="121.43824" />
  </defs>
  <sodipodi:namedview
     id="base"
     pagecolor="#ffffff"
     bordercolor="#666666"
     borderopacity="1.0"
     gridtolerance="10000"
     guidetolerance="10"
     objecttolerance="10"
     inkscape:pageopacity="0.0"
     inkscape:pageshadow="2"
     inkscape:zoom="1.2401772"
     inkscape:cx="11.464157"
     inkscape:cy="300.01531"
     inkscape:document-units="px"
     inkscape:current-layer="layer1"
     showgrid="false"
     showguides="true"
     inkscape:showpageshadow="false"
     inkscape:window-width="1029"
     inkscape:window-height="676"
     inkscape:window-x="0"
     inkscape:window-y="0"
     showborder="true"
     inkscape:guide-bbox="true">
    <inkscape:grid
       type="xygrid"
       visible="true"
       enabled="true"
       id="grid2393" />
  </sodipodi:namedview>
  <metadata
     id="metadata7">
    <rdf:RDF>
      <cc:Work
         rdf:about="">
        <dc:format>image/svg+xml</dc:format>
        <dc:type
           rdf:resource="http://purl.org/dc/dcmitype/StillImage" />
      </cc:Work>
    </rdf:RDF>
  </metadata>
  <g
     inkscape:label="Layer 1"
     inkscape:groupmode="layer"
     id="layer1">
    <rect
       ry="90"
       rx="90"
       y="10.602222"
       x="11.58176"
       height="576.74463"
       width="577.10175"
       id="rect2390"
       style="opacity:1;fill:none;fill-opacity:1;stroke:none;stroke-width:1;stroke-linecap:round;stroke-linejoin:miter;stroke-miterlimit:4;stroke-dasharray:none;stroke-dashoffset:0;stroke-opacity:1"
       inkscape:export-filename="P:\TELMA.V20\telma.v20_10_11\Projects\Interfaces\BaseInterface\Telbase\TelBasePanel\images\SetMaxStep.png"
       inkscape:export-xdpi="4.9935446"
       inkscape:export-ydpi="4.9935446" />
    <rect
       style="opacity:1;fill:none;fill-opacity:0;stroke:none;stroke-width:23.16965866000000000;stroke-linecap:round;stroke-linejoin:miter;stroke-miterlimit:4;stroke-dasharray:none;stroke-dashoffset:0;stroke-opacity:1"
       id="rect5264"
       width="577.10175"
       height="576.74463"
       x="11.581718"
       y="11.612374"
       rx="90"
       ry="90"
       inkscape:export-filename="D:\Documents and Settings\Маша\Рабочий стол\TELMA.V20\Projects\Interfaces\Telbase\TelBasePanel\images\SetMaxStep.png"
       inkscape:export-xdpi="4.7978296"
       inkscape:export-ydpi="4.7978296" />
  </g>
  <g
     inkscape:groupmode="layer"
     id="layer2"
     inkscape:label="Линия"
     sodipodi:insensitive="true">
    <path
       style="fill:none;fill-rule:evenodd;stroke:#000000;stroke-width:30;stroke-linecap:round;stroke-linejoin:miter;stroke-miterlimit:4;stroke-dasharray:none;stroke-opacity:1"
       d="M 405.91224,79.786078 L 405.91224,502.47933"
       id="path2422" />
  </g>
  <g
     inkscape:groupmode="layer"
     id="layer4"
     inkscape:label="Strelki"
     style="display:inline">
    <g
       id="g2426"
       transform="translate(-0.9702888,-10)">
      <path
         transform="matrix(-0.9529366,-0.3624321,0.3885029,-0.8016428,270.74786,17.689399)"
         d="M 24.076354,-195.87691 L 13.572705,-122.92136 L 12.53854,-63.176023 L -45.390996,-108.75023 L -96.614894,-139.51851 L -28.181709,-166.89986 L 24.076354,-195.87691 z"
         inkscape:randomized="0"
         inkscape:rounded="0"
         inkscape:flatsided="false"
         sodipodi:arg2="0.28773554"
         sodipodi:arg1="-0.96046964"
         sodipodi:r2="35.012089"
         sodipodi:r1="76.903938"
         sodipodi:cy="-132.85715"
         sodipodi:cx="-20"
         sodipodi:sides="3"
         id="path3487"
         style="opacity:1;fill:url(#linearGradient2430);fill-opacity:1;stroke:#000000;stroke-width:1;stroke-linecap:round;stroke-miterlimit:4;stroke-dasharray:none;stroke-opacity:1"
         sodipodi:type="star" />
      <path
         sodipodi:nodetypes="cc"
         id="path3489"
         d="M 239.54903,183.19136 L 239.48819,271.79199"
         style="fill:#ff0000;fill-opacity:1;fill-rule:evenodd;stroke:url(#linearGradient2432);stroke-width:42.31539154;stroke-linecap:square;stroke-linejoin:miter;stroke-miterlimit:4;stroke-dasharray:none;stroke-opacity:1" />
    </g>
    <g
       id="g2418"
       transform="translate(-2,12)">
      <path
         sodipodi:type="star"
         style="opacity:1;fill:url(#linearGradient2422);fill-opacity:1;stroke:#000000;stroke-width:1;stroke-linecap:round;stroke-miterlimit:4;stroke-dasharray:none;stroke-opacity:1"
         id="path3450"
         sodipodi:sides="3"
         sodipodi:cx="-20"
         sodipodi:cy="-132.85715"
         sodipodi:r1="76.903938"
         sodipodi:r2="35.012089"
         sodipodi:arg1="-0.96046964"
         sodipodi:arg2="0.28773554"
         inkscape:flatsided="false"
         inkscape:rounded="0"
         inkscape:randomized="0"
         d="M 24.076354,-195.87691 L 13.572705,-122.92136 L 12.53854,-63.176023 L -45.390996,-108.75023 L -96.614894,-139.51851 L -28.181709,-166.89986 L 24.076354,-195.87691 z"
         transform="matrix(0.9539711,0.3597004,-0.3862046,0.8027526,210.03018,580.08777)" />
      <path
         style="fill:#ff0000;fill-opacity:1;fill-rule:evenodd;stroke:url(#linearGradient2424);stroke-width:42.31539154;stroke-linecap:square;stroke-linejoin:miter;stroke-miterlimit:4;stroke-dasharray:none;stroke-opacity:1"
         d="M 240.75472,414.49711 L 240.56172,325.89667"
         id="path3452"
         sodipodi:nodetypes="cc" />
    </g>
  </g>
  <g
     inkscape:groupmode="layer"
     id="layer3"
     inkscape:label="Узел"
     style="display:inline"
     sodipodi:insensitive="true">
    <path
       sodipodi:type="arc"
       style="opacity:1;fill:#ffffff;fill-opacity:1;stroke:#ff0000;stroke-width:117.96363831;stroke-linecap:round;stroke-linejoin:miter;stroke-miterlimit:4;stroke-dasharray:none;stroke-dashoffset:0;stroke-opacity:1"
       id="path3195"
       sodipodi:cx="741.42859"
       sodipodi:cy="400"
       sodipodi:rx="304.28571"
       sodipodi:ry="282.85715"
       d="M 1045.7143,400 A 304.28571,282.85715 0 1 1 437.14288,400 A 304.28571,282.85715 0 1 1 1045.7143,400 z"
       transform="matrix(0.1225987,0,0,0.1318865,315.01405,454.80669)" />
    <path
       transform="matrix(0.1225987,0,0,0.1318865,315.18737,37.837147)"
       d="M 1045.7143,400 A 304.28571,282.85715 0 1 1 437.14288,400 A 304.28571,282.85715 0 1 1 1045.7143,400 z"
       sodipodi:ry="282.85715"
       sodipodi:rx="304.28571"
       sodipodi:cy="400"
       sodipodi:cx="741.42859"
       id="path3197"
       style="opacity:1;fill:#ffffff;fill-opacity:1;stroke:#ff0000;stroke-width:117.96363831;stroke-linecap:round;stroke-linejoin:miter;stroke-miterlimit:4;stroke-dasharray:none;stroke-dashoffset:0;stroke-opacity:1"
       sodipodi:type="arc" />
  </g>
</svg>

<svg xmlns="http://www.w3.org/2000/svg" xmlns:xlink="http://www.w3.org/1999/xlink" width="600" height="600"><defs><linearGradient id="A" gradientUnits="userSpaceOnUse"><stop offset="0" stop-color="red"/><stop offset="1" stop-color="red" stop-opacity="0"/></linearGradient><linearGradient id="B" x1="-74.741" y1="-86.036" x2="91.101" y2="-163.683" gradientUnits="userSpaceOnUse"><stop offset="0" stop-color="red"/><stop offset="1" stop-color="red" stop-opacity="0"/></linearGradient><linearGradient xlink:href="#A" id="C" gradientTransform="matrix(4.9810849,0.3788437,-5.1235048,0.5090201,259.47826,252.87199)" x1="123.157" y1="130.179" x2="131.752" y2="121.438"/><linearGradient xlink:href="#A" id="D" gradientTransform="matrix(-4.9799791,-0.393113,5.1249421,-0.4943392,220.36251,344.76217)" x1="123.157" y1="130.179" x2="131.752" y2="121.438"/><path id="E" d="M24.076-195.877l-10.504 72.956-1.034 59.745-57.93-45.574-51.224-30.768 68.433-27.381 52.258-28.977z"/><path id="F" d="M443.217 507.561c0 20.603-16.702 37.305-37.305 37.305s-37.305-16.702-37.305-37.305 16.702-37.305 37.305-37.305 37.305 16.702 37.305 37.305z"/></defs><path d="M405.912 79.786v422.693" fill="none" stroke="#000" stroke-width="30" stroke-linecap="round"/><g transform="translate(-.97 -10)"><use xlink:href="#E" transform="matrix(-.952937 -.362432 .388503 -.801643 270.74786 17.689399)" fill="url(#B)" stroke="#000"/><path d="M239.549 183.191l-.061 88.601" fill="red" fill-rule="evenodd" stroke="url(#D)" stroke-width="42.315" stroke-linecap="square"/></g><g transform="translate(-2 12)"><use xlink:href="#E" transform="matrix(.953971 .3597 -.386205 .802753 210.03018 580.08777)" fill="url(#B)" stroke="#000"/><path d="M240.755 414.497l-.193-88.6" fill="red" fill-rule="evenodd" stroke="url(#C)" stroke-width="42.315" stroke-linecap="square"/></g><g fill="#fff" stroke="red" stroke-width="15.02"><use xlink:href="#F"/><use xlink:href="#F" x="0.174" y="-416.969"/></g></svg>
